WebUI/wwwroot/MuberraSabuncu/images/icon-benefits-2.svg

<svg width="37" height="31" viewBox="0 0 37 31" fill="none" xmlns="http://www.w3.org/2000/svg">
<path d="M20.8341 0.418945C19.5075 0.418945 18.4341 1.49238 18.4341 2.81895V4.01895H0.434082V26.8189H4.22158C4.75596 28.8814 6.61221 30.4189 8.83408 30.4189C11.056 30.4189 12.9122 28.8814 13.4466 26.8189H23.4216C23.956 28.8814 25.8122 30.4189 28.0341 30.4189C30.256 30.4189 32.1122 28.8814 32.6466 26.8189H36.4341V13.1689L36.1341 12.8314L28.9341 4.43145L28.5966 4.01895H23.2341V2.81895C23.2341 1.49238 22.1606 0.418945 20.8341 0.418945ZM2.83408 6.41895H27.4716L34.0341 14.0689V24.4189H32.6466C32.1122 22.3564 30.256 20.8189 28.0341 20.8189C25.8122 20.8189 23.956 22.3564 23.4216 24.4189H13.4466C12.9122 22.3564 11.056 20.8189 8.83408 20.8189C6.61221 20.8189 4.75596 22.3564 4.22158 24.4189H2.83408V6.41895ZM16.0341 10.0189V13.6189H12.4341V16.0189H16.0341V19.6189H18.4341V16.0189H22.0341V13.6189H18.4341V10.0189H16.0341ZM8.83408 23.2189C10.1747 23.2189 11.2341 24.2783 11.2341 25.6189C11.2341 26.9596 10.1747 28.0189 8.83408 28.0189C7.49346 28.0189 6.43408 26.9596 6.43408 25.6189C6.43408 24.2783 7.49346 23.2189 8.83408 23.2189ZM28.0341 23.2189C29.3747 23.2189 30.4341 24.2783 30.4341 25.6189C30.4341 26.9596 29.3747 28.0189 28.0341 28.0189C26.6935 28.0189 25.6341 26.9596 25.6341 25.6189C25.6341 24.2783 26.6935 23.2189 28.0341 23.2189Z" fill="white"/>
</svg>

<?xml version="1.0" encoding="UTF-8"?>
<svg xmlns="http://www.w3.org/2000/svg" version="1.1" viewBox="0 0 37 31">
  <defs>
    <style>
      .cls-1 {
        fill: #fff;
      }
    </style>
  </defs>
  <!-- Generator: Adobe Illustrator 28.7.1, SVG Export Plug-In . SVG Version: 1.2.0 Build 142)  -->
  <g>
    <g id="katman_1">
      <path class="cls-1" d="M20.8.4c-1.3,0-2.4,1.1-2.4,2.4v1.2H.4v22.8h3.8c.5,2.1,2.4,3.6,4.6,3.6s4.1-1.5,4.6-3.6h10c.5,2.1,2.4,3.6,4.6,3.6s4.1-1.5,4.6-3.6h3.8v-13.6l-.3-.3-7.2-8.4-.3-.4h-5.4v-1.2c0-1.3-1.1-2.4-2.4-2.4ZM2.8,6.4h24.6l6.6,7.6v10.3h-1.4c-.5-2.1-2.4-3.6-4.6-3.6s-4.1,1.5-4.6,3.6h-10c-.5-2.1-2.4-3.6-4.6-3.6s-4.1,1.5-4.6,3.6h-1.4V6.4ZM8.8,23.2c1.3,0,2.4,1.1,2.4,2.4s-1.1,2.4-2.4,2.4-2.4-1.1-2.4-2.4,1.1-2.4,2.4-2.4ZM28,23.2c1.3,0,2.4,1.1,2.4,2.4s-1.1,2.4-2.4,2.4-2.4-1.1-2.4-2.4,1.1-2.4,2.4-2.4Z"/>
    </g>
  </g>
</svg>
